X:6820
T:The Girl from Knocklong
O:england
B:Joyce, P. W.; "Old Irish Folk Music and Songs"
R:song air
L:1/8
M:C
K:G
gf|e2 e2 e2 dB|A2 ((3GED) E3 F|G2 A2 G2 G2|G6 d2|
d2 dB d2 ef|g3 f ed d2|e2 dB G2 GA|B6 d2|
d2 dB d2 ef|g3 f ef d2|e2 dB G2 Bd|e6 DE|
G2 g2 f2 d2|e2 d>c BGED|G2 A2 G2 G2|G6||


